resources/svg/lock-laminated-thin.svg

<svg xmlns="http://www.w3.org/2000/svg" viewBox="0 0 256 256" fill="currentColor"><path d="M207.99414,84h-40V52a40,40,0,1,0-80,0V84h-40a12.01375,12.01375,0,0,0-12,12V208a12.01375,12.01375,0,0,0,12,12h160a12.01375,12.01375,0,0,0,12-12V96A12.01375,12.01375,0,0,0,207.99414,84Zm-164,40h168v24h-168Zm0,32h168v24h-168Zm52-104a32,32,0,1,1,64,0V84h-64Zm-48,40h160a4.00458,4.00458,0,0,1,4,4v20h-168V96A4.00458,4.00458,0,0,1,47.99414,92Zm160,120h-160a4.00458,4.00458,0,0,1-4-4V188h168v20A4.00458,4.00458,0,0,1,207.99414,212Z"/></svg>

<svg xmlns="http://www.w3.org/2000/svg" viewBox="0 0 256 256" fill="currentColor"><path d="M208,84H168V52a40,40,0,0,0-80,0V84H48A12,12,0,0,0,36,96V208a12,12,0,0,0,12,12H208a12,12,0,0,0,12-12V96A12,12,0,0,0,208,84ZM44,124H212v24H44Zm0,32H212v24H44ZM96,52a32,32,0,0,1,64,0V84H96ZM48,92H208a4,4,0,0,1,4,4v20H44V96A4,4,0,0,1,48,92ZM208,212H48a4,4,0,0,1-4-4V188H212v20A4,4,0,0,1,208,212Z"/></svg>
